assets/icons/qvision/add_shopping_cart.svg

<svg xmlns="http://www.w3.org/2000/svg" height="24" viewBox="0 0 24 24" width="24"><path d="M0 0h24v24H0zm18.31 6l-2.76 5z" fill="none"/><path d="M11 9h2V6h3V4h-3V1h-2v3H8v2h3v3zm-4 9c-1.1 0-1.99.9-1.99 2S5.9 22 7 22s2-.9 2-2-.9-2-2-2zm10 0c-1.1 0-1.99.9-1.99 2s.89 2 1.99 2 2-.9 2-2-.9-2-2-2zm-9.83-3.25l.03-.12.9-1.63h7.45c.75 0 1.41-.41 1.75-1.03l3.86-7.01L19.42 4h-.01l-1.1 2-2.76 5H8.53l-.13-.27L6.16 6l-.95-2-.94-2H1v2h2l3.6 7.59-1.35 2.45c-.16.28-.25.61-.25.96 0 1.1.9 2 2 2h12v-2H7.42c-.13 0-.25-.11-.25-.25z"/></svg>

<svg width="24" height="24" viewBox="0 0 24 24" fill="none" xmlns="http://www.w3.org/2000/svg">
<g clip-path="url(#clip0_147_3835)">
<path d="M11 9H13V6H16V4H13V1H11V4H8V6H11V9ZM7 18C5.9 18 5.01 18.9 5.01 20C5.01 21.1 5.9 22 7 22C8.1 22 9 21.1 9 20C9 18.9 8.1 18 7 18ZM17 18C15.9 18 15.01 18.9 15.01 20C15.01 21.1 15.9 22 17 22C18.1 22 19 21.1 19 20C19 18.9 18.1 18 17 18ZM7.17 14.75L7.2 14.63L8.1 13H15.55C16.3 13 16.96 12.59 17.3 11.97L21.16 4.96L19.42 4H19.41L18.31 6L15.55 11H8.53L8.4 10.73L6.16 6L5.21 4L4.27 2H1V4H3L6.6 11.59L5.25 14.04C5.09 14.32 5 14.65 5 15C5 16.1 5.9 17 7 17H19V15H7.42C7.29 15 7.17 14.89 7.17 14.75Z" fill="#323232"/>
</g>
<defs>
<clipPath id="clip0_147_3835">
<rect width="24" height="24" fill="white"/>
</clipPath>
</defs>
</svg>
